Origami/22x22/apps/mstdn.svg

<svg width="22" height="22" version="1.1" viewBox="0 0 22 22" xmlns="http://www.w3.org/2000/svg">
 <path d="m8 1.5c-3.324 0-6 2.6268085-6 5.890625v3.21875c0 0.0066 0.00193 0.01292 0.00195 0.01953 0.0038 2.160167 0.2086077 6.949878 1.9023438 8.878906 1.5294802 1.741953 5.0960722 1.992189 6.5371122 1.992189 2.560937 0 4.558594-1.001953 4.558594-1.001953v-1.505859s-2.40235 0.540213-4.226562 0.507812c-1.252698-0.02225-2.0687694-0.350468-2.6074224-1.162109-0.227911-0.343417-0.1496455-1.281085-0.265625-1.837891-3.738e-4 -0.0018 3.734e-4 -0.0041 0-0.0059 0.0335145 5.77e-4 0.06596 0.0059 0.0996094 0.0059h6c3.324 0 6-2.626808 6-5.890625v-3.21875c0-3.2638165-2.676-5.890625-6-5.890625z" style="opacity:.2"/>
 <rect x="2" y="1" width="18" height="15" rx="6" ry="5.891" style="fill:#3088d4"/>
 <path d="m 2.0164755,9 h 5.283113 c 0,0 0.025799,4.242684 0.600131,7 0.1159795,0.556806 0.03865,1.494128 0.266561,1.837545 C 8.7049335,18.649186 9.521357,18.97775 10.774055,19 12.598268,19.032401 15,18.492779 15,18.492779 v 1.504333 C 15,19.997112 13.001977,21 10.44104,21 9,21 5.432902,20.749171 3.9034249,19.00722 1.6939006,16.49075 2.0164755,9 2.0164755,9 Z" style="fill:#3088d4"/>
 <circle cx="7" cy="7.5" r="1" style="opacity:.2"/>
 <circle cx="7" cy="7" r="1" style="fill:#ffffff"/>
 <path d="m8 1c-3.324 0-6 2.6268085-6 5.890625v0.5c0-3.2638165 2.676-5.890625 6-5.890625h6c3.324 0 6 2.6268085 6 5.890625v-0.5c0-3.2638165-2.676-5.890625-6-5.890625zm-0.099609 15.494141c3.734e-4 0.0018-3.738e-4 0.0041 0 0.0059 0.1159795 0.556806 0.037714 1.494474 0.265625 1.837891 0.5386526 0.8116 1.354724 1.139818 2.607422 1.162068 1.824212 0.032401 4.226562-0.507812 4.226562-0.507812v-0.5s-2.402351 0.540213-4.226562 0.507812c-1.252699-0.02225-2.0687694-0.350468-2.6074224-1.162109-0.1712751-0.258078-0.1828712-0.826359-0.2207031-1.341797-0.014875-0.0013-0.029821-0.0017-0.044922-2e-3z" style="fill:#ffffff;opacity:.2"/>
</svg>

<svg xmlns="http://www.w3.org/2000/svg" width="22" height="22" version="1.1" viewBox="0 0 22 22">
 <path style="opacity:0.2" d="M 8,1.5 C 4.676,1.5 2,4.1268085 2,7.390625 v 3.21875 c 0,0.0066 0.00193,0.01292 0.00195,0.01953 0.0038,2.160167 0.2086077,6.949878 1.9023438,8.878906 C 5.433774,21.249764 9.000366,21.5 10.441406,21.5 13.002343,21.5 15,20.498047 15,20.498047 v -1.505859 c 0,0 -2.40235,0.540213 -4.226562,0.507812 C 9.52074,19.47775 8.7046686,19.149532 8.1660156,18.337891 7.9381046,17.994474 8.0163701,17.056806 7.9003906,16.5 c -3.738e-4,-0.0018 3.734e-4,-0.0041 0,-0.0059 C 7.9339051,16.494677 7.9663506,16.5 8,16.5 h 6 c 3.324,0 6,-2.626808 6,-5.890625 V 7.390625 C 20,4.1268085 17.324,1.5 14,1.5 Z"/>
 <rect style="fill:#3088d4" width="18" height="15" x="2" y="1" rx="6" ry="5.891"/>
 <path style="fill:#3088d4" d="m 2.0164755,9 h 5.283113 c 0,0 0.025799,4.242684 0.600131,7 0.1159795,0.556806 0.03865,1.494128 0.266561,1.837545 C 8.7049335,18.649186 9.521357,18.97775 10.774055,19 12.598268,19.032401 15,18.492779 15,18.492779 v 1.504333 C 15,19.997112 13.001977,21 10.44104,21 9,21 5.432902,20.749171 3.9034249,19.00722 1.6939006,16.49075 2.0164755,9 2.0164755,9 Z"/>
 <circle style="opacity:0.2" cx="7" cy="7.5" r="1"/>
 <circle style="fill:#ffffff" cx="7" cy="7" r="1"/>
 <path style="opacity:0.2;fill:#ffffff" d="M 8,1 C 4.676,1 2,3.6268085 2,6.890625 v 0.5 C 2,4.1268085 4.676,1.5 8,1.5 h 6 c 3.324,0 6,2.6268085 6,5.890625 v -0.5 C 20,3.6268085 17.324,1 14,1 Z M 7.900391,16.494141 c 3.734e-4,0.0018 -3.738e-4,0.0041 0,0.0059 0.1159795,0.556806 0.037714,1.494474 0.265625,1.837891 C 8.7046686,19.149532 9.52074,19.47775 10.773438,19.5 12.59765,19.532401 15,18.992188 15,18.992188 v -0.5 c 0,0 -2.402351,0.540213 -4.226562,0.507812 C 9.520739,18.97775 8.7046686,18.649532 8.1660156,17.837891 7.9947405,17.579813 7.9831444,17.011532 7.9453125,16.496094 c -0.014875,-0.0013 -0.029821,-0.0017 -0.044922,-0.002 z"/>
</svg>
